X: 20452
T: LADY OF THE LAKE
%R: jig
B: "Edinburgh Repository of Music" v.2 p.45 #2
F: http://digital.nls.uk/special-collections-of-printed-music/pageturner.cfm?id=87776133
Z: 2015 John Chambers <jc:trillian.mit.edu>
M: 6/8
L: 1/8
K: G
G |\
(Bc).A G2D | E2D G2D | (Bc).A G2B | (Ad).d (d^c).=c |\
(Bc).A G2D | E2D G2D | {F}E2D {F}E2D | DGG G2 H:|
(d/c/) |\
(Bc).B B2A | B2c d2f | g2f e2d | (dc).B A2(d/c/) |\
(Bc).B B2A | B2c d2f | g2e a2g | (fg).e "Da Capo"d2 |]
